X:442
%%etbk:tnset id:429,pos:2,rep:3x,ant:
%%etbk:wsite http://www.thesession.org/tunes/display/655
%%etbk:pldat 2016-09-04T13:59,2016-08-04T19:15,2016-07-12T17:04,2016-06-12T15:16,2016-04-23T17:05,2016-04-18T18:55,2016-04-02T15:38,2016-03-15T17:35,2016-03-14T18:49,2016-01-27T17:18,2016-01-20T17:41,2016-01-17T14:52,2016-01-12T18:16,2016-01-02T13:44,2015-12-22T16:39,2015-12-15T17:24,2015-11-28T16:16,2015-11-25T16:43,2015-11-24T18:04,2015-10-20T17:48,2015-10-17T15:30,2015-10-14T17:11,2015-10-12T18:13,2015-10-07T17:11,2015-09-30T17:19,2015-09-06T14:26,2015-08-18T17:49,2015-08-15T14:05,2015-08-14T15:18,2015-08-13T18:56,2015-08-11T17:31,2015-08-09T14:45,2015-08-04T17:37,2015-08-02T12:10,2015-08-01T17:18,2015-07-31T18:39,2015-07-29T17:55,2015-07-27T19:38,2015-07-25T15:03,2015-07-24T18:29,2015-07-23T19:03,2015-07-18T17:14,2015-06-08T19:05,2015-06-06T14:51,2015-05-31T16:19,2015-05-25T16:23,2015-05-19T18:19,2015-05-17T14:02,2015-05-05T16:19,2015-04-27T19:14,2015-04-21T17:05,2015-04-20T18:43,2015-04-19T10:54,2015-04-11T15:43,2014-09-16T19:19,2014-05-06T16:09,2014-04-08T18:04,2014-02-08T14:22,2014-02-04T18:33,2013-11-16T15:15,2013-11-12T17:50,2013-11-10T15:33,2013-05-14T18:58
T: Donegal Highland, The
T: Charlie O'Neill's
Z: Piano Box Version by Martin Fleischmann
H: Created 2013-02-19 /  Last Modified 2015-04-19
M: 4/4
L: 1/8
R: highland
K: Emin
dc|: "em"!3!B<!1!E!3!B>!1!E !4!cBc!2!A | !3!B<!1!E!3!B>!1!E !4!c!2!A!1!F!2!A | !3!B<!1!E!3!B>!1!E !4!cBcB |1 !2!Acdc !3!B<!1!GGA:|2 !2!Acdc !3!B<!1!GGf|
| "G"!5!g2!4!fg !1!B2!3!BA | !1!G!2!e!5!ag "D"!3!fdef | "G"!5!g2fg !1!B2!3!BA | "D"!1!G!2!B!4!d!3!c "G"!2!B<!1!Gba |
"G"!5!g2!4!fg !1!B2!3!BA | !1!G!2!e!5!ag "D"!3!f!1!d!3!c!1!A | "G"!1!G!2!B!4!d!2!B "C"!3!c!1!d!2!e!3!f | "D"!3!g!5!ba!2!f "G"!3!g4||


